X:1
T:Rimsky-Korsakov Harmonic Exercises, Modulations (2)
T:Rimsky-Korsakov Harmonic Exercises, Modulations (2)
T:"Practical Manual of Harmony" (1885)
%%score { ( 1 2 ) | ( 3 4 ) }
L:1/8
Q:1/2=120
M:3/1
K:C
V:1 treble nm="Piano" snm="Pno."
V:2 treble 
V:3 bass 
V:4 bass 
V:1
"""^Modulations with chromaticism""^C -- d""_C:""_d:""_{""^Examples by Rimsky-Korsakov:" c8 _B8 A8 |] %1
"""^C -- a""_C:""_a:""_{" c8 d8 c8 |]"""^a -- d""_a:""_d:""_{" c8 ^c8 d8 |] %3
"""^a -- d""_a:""_d:""_{" c8 ^c8 d8 |] %4
[M:4/1]"""^C -- G""^Using the harmonic major""_C:""_G:""_{" G8 A8 A8 B8 |] %5
[M:5/1]"""^a -- C""_a:" c8"""_a:""_C:""_{" c8 d8 d8 e8 |] %6
[M:4/1]"""^a -- G""_a:""_G:""_{" c8 A8 A8 B8 |] %7
[M:6/1]"""^C -- d""_C:""^Using the major subdominant of the minor key" e8"""_C:""_d:""_{" d8 d8 d8 ^c8 d8 |] %8
[M:4/1]"""^a -- G""_a:" c8"" d8"""_a:""_G:""_{" d8 d8 |] %9
V:2
"" G8"" G8"" F8 |]"" G8"" ^G8"" A8 |]"" A8"" A8"" A8 |]"" E8"" E8"" F8 |] %4
[M:4/1]"" G8"" G8"" ^F8"" G8 |][M:5/1] A8"" c8"" c8"" B8"" c8 |][M:4/1]"" A8"" G8"" ^F8"" G8 |] %7
[M:6/1] c8"" B8"" _B8"" A8"" A8"" A8 |][M:4/1] A8 A8"" A8"" G8 |] %9
V:3
 E8 E8 F8 |] E8 E8 E8 |] E8 E8 D8 |] C8 _B,8 A,8 |][M:4/1] E8 _E8 D8 D8 |] %5
[M:5/1] E8 A8 _A8 G8 G8 |][M:4/1] E8 _E8 D8 D8 |][M:6/1] G8 G8 G8 A8 G8 F8 |] %8
[M:4/1] E8 F8 ^F8 G8 |] %9
V:4
 C8 ^C8 D8 |] C8 B,8 A,8 |] A,8 G,8 F,8 |] A,8 G,8 F,8 |][M:4/1] C,8 C,8 D,8 G,8 |] %5
[M:5/1] A,8 F,8 F,8 G,8 C,8 |][M:4/1] A,,8 C,8 D,8 G,,8 |][M:6/1] C,8 G,8 G,8 F,8 E,8 D,8 |] %8
[M:4/1] A,8 D8 C8 B,8 |] %9

